X: 30341
T: NEW YORK SERENADING WALTZ
C:
%R: waltz
B: Elias Howe "The Musician's Companion" Part 3 1844 p.34 #1
S: http://imslp.org/wiki/The_Musician's_Companion_(Howe,_Elias)
S: https://archive.org/stream/firstthirdpartof03howe/#page/66/mode/1up
Z: 2016 John Chambers <jc:trillian.mit.edu>
M: 3/8
L: 1/16
K: C
% - - - - - - - - - - - - - - - - - - - - - - - - -
ge |\
c2c2c2 | d2defd | cBAGAB | cdefge |\
c2c2c2 | d2defd | cBAGAB | c4 :|
|: Bc |\
dBGBdB | ecGcec | fefdcB | cdefge |\
dBGBdB | ecGcec | fefdcB | c4 :|
|: ef |\
g2a2g2 | g2f2e2 | f2g2f2 | f2e2d2 |\
edcdef | egf2e2 | d2d2d2 | c4 :|
% - - - - - - - - - - - - - - - - - - - - - - - - -
